Numix-Light-GalliumOS/24/status/renamed-pidgin.svg

<?xml version="1.0" encoding="UTF-8" standalone="no"?>
<svg
   xmlns:dc="http://purl.org/dc/elements/1.1/"
   xmlns:cc="http://creativecommons.org/ns#"
   xmlns:rdf="http://www.w3.org/1999/02/22-rdf-syntax-ns#"
   xmlns:svg="http://www.w3.org/2000/svg"
   xmlns="http://www.w3.org/2000/svg"
   xmlns:sodipodi="http://sodipodi.sourceforge.net/DTD/sodipodi-0.dtd"
   xmlns:inkscape="http://www.inkscape.org/namespaces/inkscape"
   width="24"
   viewBox="0 0 24 24"
   height="24"
   id="svg2"
   version="1.1"
   inkscape:version="0.91 r"
   sodipodi:docname="renamed-pidgin.svg">
  <metadata
     id="metadata12">
    <rdf:RDF>
      <cc:Work
         rdf:about="">
        <dc:format>image/svg+xml</dc:format>
        <dc:type
           rdf:resource="http://purl.org/dc/dcmitype/StillImage" />
        <dc:title />
      </cc:Work>
    </rdf:RDF>
  </metadata>
  <sodipodi:namedview
     pagecolor="#ffffff"
     bordercolor="#666666"
     borderopacity="1"
     objecttolerance="10"
     gridtolerance="10"
     guidetolerance="10"
     inkscape:pageopacity="0"
     inkscape:pageshadow="2"
     inkscape:window-width="1366"
     inkscape:window-height="747"
     id="namedview10"
     showgrid="true"
     inkscape:zoom="16.281885"
     inkscape:cx="-15.657563"
     inkscape:cy="10.059336"
     inkscape:window-x="0"
     inkscape:window-y="21"
     inkscape:window-maximized="1"
     inkscape:current-layer="svg2">
    <inkscape:grid
       type="xygrid"
       id="grid2990" />
  </sodipodi:namedview>
  <defs
     id="defs4" />
  <path
     style="fill:#353535;fill-opacity:1;fill-rule:evenodd"
     d="m 12,4 c -4.4316259,0 -8,3.5683741 -8,8 0,4.431626 3.5683741,8 8,8 4.431626,0 8,-3.568374 8,-8 C 20,7.5683741 16.431626,4 12,4 Z M 8.46875,7.4375 c 0.5676334,-0.053081 1.1446992,0.4080581 1.4375,1.125 0.017789,0.041086 0.04759,0.081012 0.0625,0.125 0.077236,0.2278955 0.119304,0.46667 0.125,0.6875 0.0026,0.109551 -0.01719,0.209178 -0.03125,0.3125 -0.02746,0.208803 -0.067716,0.394737 -0.15625,0.5625 -0.089195,0.165604 -0.2320585,0.303184 -0.375,0.40625 -0.06532,0.04513 -0.1435703,0.09632 -0.21875,0.125 -0.083533,0.03187 -0.1643106,0.0544 -0.25,0.0625 C 8.8774666,10.861053 8.7114743,10.830787 8.53125,10.75 8.4479085,10.715319 8.3913372,10.678699 8.3125,10.625 8.1462438,10.513283 8.0064138,10.370702 7.875,10.1875 7.816691,10.1072 7.7363684,10.030008 7.6875,9.9375 7.68328,9.9294 7.69164,9.91447 7.6875,9.90625 7.6354969,9.804991 7.601118,9.707698 7.5625,9.59375 7.54546,9.543479 7.5436334,9.487538 7.53125,9.4375 7.5250025,9.423861 7.5060211,9.420101 7.5,9.40625 7.2857318,8.5588306 7.5655,7.7372905 8.1875,7.5 8.2710331,7.4681325 8.3825303,7.4455627 8.46875,7.4375 Z m 6.25,0.375 c 0.506639,-0.075532 1.044675,0.295585 1.3125,0.90625 0.07652,0.1744757 0.140467,0.358595 0.15625,0.53125 0.01031,0.136772 -0.0067,0.281018 -0.03125,0.40625 -0.0175,0.09174 -0.05831,0.168683 -0.09375,0.25 -0.0037,0.0086 0.0039,0.02275 0,0.03125 -0.03496,0.07517 -0.07511,0.156132 -0.125,0.21875 -0.01813,0.02235 -0.04248,0.04209 -0.0625,0.0625 -0.02861,0.02915 -0.06143,0.03756 -0.09375,0.0625 -0.05832,0.04599 -0.117036,0.09505 -0.1875,0.125 -0.128005,0.0544 -0.269419,0.07025 -0.40625,0.0625 -0.0098,-8.33e-4 -0.02147,0.0011 -0.03125,0 -0.137753,-0.01231 -0.27413,-0.05768 -0.40625,-0.125 -0.0068,-0.0036 -0.02446,0.0038 -0.03125,0 -0.140485,-0.07594 -0.258172,-0.18279 -0.375,-0.3125 C 14.226369,9.9021 14.139021,9.736976 14.0625,9.5625 13.9848,9.385268 13.92155,9.20801 13.90625,9.03125 c -0.0099,-0.1143742 -0.01473,-0.2377713 0,-0.34375 0.0024,0.021297 0.02802,0.041146 0.03125,0.0625 C 13.9818,8.3594808 14.169399,8.0155099 14.5,7.875 14.56893,7.845706 14.646373,7.82329 14.71875,7.8125 Z M 15.0625,8.375 c -0.315391,0 -0.59375,0.2468998 -0.59375,0.5625 0,0.3156 0.278359,0.59375 0.59375,0.59375 0.315391,0 0.5625,-0.27815 0.5625,-0.59375 0,-0.3156002 -0.247109,-0.5625 -0.5625,-0.5625 z M 9,8.5625 C 8.9011754,8.5570624 8.7864949,8.5894041 8.6875,8.625 8.2915205,8.7673836 8.1076164,9.197771 8.25,9.59375 8.3923836,9.989729 8.8227705,10.204884 9.21875,10.0625 9.6147295,9.920116 9.7986336,9.458479 9.65625,9.0625 9.5494623,8.7655154 9.2964739,8.5788128 9,8.5625 Z m 6.125,0.34375 c 0.07885,0 0.15625,0.07735 0.15625,0.15625 0,0.0789 -0.0774,0.125 -0.15625,0.125 C 15.04615,9.1875 15,9.1414 15,9.0625 15,8.9836 15.04615,8.90625 15.125,8.90625 Z M 9.0625,9.25 c 0.098995,-0.0356 0.1831541,-0.0052 0.21875,0.09375 0.035596,0.099 0.00524,0.214404 -0.09375,0.25 -0.098995,0.0356 -0.2144041,-0.026 -0.25,-0.125 C 8.901904,9.36975 8.963505,9.285596 9.0625,9.25 Z m 2.875,1.59375 c 0.03108,-9.29e-4 0.03932,0.02886 0.0625,0.03125 0.01882,-0.0023 0.03824,-0.032 0.0625,-0.03125 0.176123,0.0053 0.50485,0.119447 1.0625,0.625 0.743537,0.674072 0.78125,1.28125 0.78125,1.28125 -0.119104,0.0598 -0.253128,0.164196 -0.375,0.28125 -0.333001,1.172183 -0.617685,1.625 -1.53125,1.625 -0.979103,0 -1.439667,-0.5135 -1.5625,-1.65625 -0.109515,-0.09891 -0.231665,-0.193509 -0.34375,-0.25 0,0 0.03771,-0.607174 0.78125,-1.28125 0.557653,-0.505557 0.88638,-0.619735 1.0625,-0.625 z"
     id="rect16"
     inkscape:connector-curvature="0" />
</svg>

<svg xmlns="http://www.w3.org/2000/svg" viewBox="0 0 24 24">
 <path d="m 12 4 c -4.432 0 -8 3.568 -8 8 0 4.432 3.568 8 8 8 4.432 0 8 -3.568 8 -8 c 0 -4.432 -3.568 -8 -8 -8 m -3.531 3.438 c 0.568 -0.053 1.145 0.408 1.438 1.125 0.018 0.041 0.048 0.081 0.063 0.125 0.077 0.228 0.119 0.467 0.125 0.688 0.003 0.11 -0.017 0.209 -0.031 0.313 -0.027 0.209 -0.068 0.395 -0.156 0.563 -0.089 0.166 -0.232 0.303 -0.375 0.406 -0.065 0.045 -0.144 0.096 -0.219 0.125 -0.084 0.032 -0.164 0.054 -0.25 0.063 c -0.185 0.017 -0.351 -0.013 -0.531 -0.094 -0.083 -0.035 -0.14 -0.071 -0.219 -0.125 -0.166 -0.112 -0.306 -0.254 -0.438 -0.438 -0.058 -0.08 -0.139 -0.157 -0.188 -0.25 -0.004 -0.008 0.004 -0.023 0 -0.031 -0.052 -0.101 -0.086 -0.199 -0.125 -0.313 -0.017 -0.05 -0.019 -0.106 -0.031 -0.156 -0.006 -0.014 -0.025 -0.017 -0.031 -0.031 -0.214 -0.847 0.066 -1.669 0.688 -1.906 0.084 -0.032 0.195 -0.054 0.281 -0.063 m 6.25 0.375 c 0.507 -0.076 1.045 0.296 1.313 0.906 0.077 0.174 0.14 0.359 0.156 0.531 0.01 0.137 -0.007 0.281 -0.031 0.406 -0.017 0.092 -0.058 0.169 -0.094 0.25 -0.004 0.009 0.004 0.023 0 0.031 -0.035 0.075 -0.075 0.156 -0.125 0.219 -0.018 0.022 -0.042 0.042 -0.063 0.063 -0.029 0.029 -0.061 0.038 -0.094 0.063 -0.058 0.046 -0.117 0.095 -0.188 0.125 -0.128 0.054 -0.269 0.07 -0.406 0.063 -0.01 -0.001 -0.021 0.001 -0.031 0 -0.138 -0.012 -0.274 -0.058 -0.406 -0.125 -0.007 -0.004 -0.024 0.004 -0.031 0 -0.14 -0.076 -0.258 -0.183 -0.375 -0.313 c -0.117 -0.129 -0.205 -0.294 -0.281 -0.469 -0.078 -0.177 -0.141 -0.354 -0.156 -0.531 c -0.01 -0.114 -0.015 -0.238 0 -0.344 0.002 0.021 0.028 0.041 0.031 0.063 c 0.044 -0.391 0.232 -0.734 0.563 -0.875 0.069 -0.029 0.146 -0.052 0.219 -0.063 m 0.344 0.563 c -0.315 0 -0.594 0.247 -0.594 0.563 0 0.316 0.278 0.594 0.594 0.594 0.315 0 0.563 -0.278 0.563 -0.594 0 -0.316 -0.247 -0.563 -0.563 -0.563 z m -6.06 0.188 c -0.099 -0.005 -0.214 0.027 -0.313 0.063 -0.396 0.142 -0.58 0.573 -0.438 0.969 0.142 0.396 0.573 0.611 0.969 0.469 0.396 -0.142 0.58 -0.604 0.438 -1 -0.107 -0.297 -0.36 -0.484 -0.656 -0.5 m 6.125 0.344 c 0.079 0 0.156 0.077 0.156 0.156 0 0.079 -0.077 0.125 -0.156 0.125 c -0.079 0 -0.125 -0.046 -0.125 -0.125 0 -0.079 0.046 -0.156 0.125 -0.156 m -6.06 0.344 c 0.099 -0.036 0.183 -0.005 0.219 0.094 0.036 0.099 0.005 0.214 -0.094 0.25 -0.099 0.036 -0.214 -0.026 -0.25 -0.125 c -0.036 -0.099 0.026 -0.183 0.125 -0.219 m 2.875 1.594 c 0.031 -0.001 0.039 0.029 0.063 0.031 0.019 -0.002 0.038 -0.032 0.063 -0.031 0.176 0.005 0.505 0.119 1.063 0.625 0.744 0.674 0.781 1.281 0.781 1.281 -0.119 0.06 -0.253 0.164 -0.375 0.281 -0.333 1.172 -0.618 1.625 -1.531 1.625 -0.979 0 -1.44 -0.514 -1.563 -1.656 -0.11 -0.099 -0.232 -0.194 -0.344 -0.25 0 0 0.038 -0.607 0.781 -1.281 0.558 -0.506 0.886 -0.62 1.063 -0.625 z" style="fill:#353535;fill-opacity:1;fill-rule:evenodd"/>
</svg>
